brandFactory_export/2.Regular/Comprar datos_2Regular.svg

<?xml version="1.0" encoding="UTF-8"?>
<svg width="24px" height="24px" viewBox="0 0 24 24" version="1.1" xmlns="http://www.w3.org/2000/svg" xmlns:xlink="http://www.w3.org/1999/xlink">
    <title>2.Regular/Comprar datos_2Regular</title>
    <g id="Symbols" stroke="none" stroke-width="1" fill="none" fill-rule="evenodd">
        <g id="2.Regular/Comprar-datos_2Regular" fill="#5CB615" fill-rule="nonzero">
            <path d="M10.1714286,19.6436975 C10.7697479,19.6436975 11.2537815,19.8151261 11.6033613,20.1512605 C11.9697479,20.5042017 12.1546218,20.9983193 12.1546218,21.6268908 C12.1546218,22.2554622 11.9697479,22.7495798 11.6033613,23.102521 C11.2571429,23.4386555 10.7731092,23.610084 10.1714286,23.610084 C9.5697479,23.610084 9.08907563,23.4386555 8.7394958,23.102521 C8.37310924,22.7495798 8.18823529,22.2554622 8.18823529,21.6268908 C8.18823529,20.9983193 8.37310924,20.5042017 8.7394958,20.1512605 C9.08907563,19.8151261 9.57310924,19.6436975 10.1714286,19.6436975 Z M16.7260504,19.6436975 C17.3243697,19.6436975 17.8084034,19.8151261 18.1579832,20.1512605 C18.5210084,20.5042017 18.7092437,20.9983193 18.7092437,21.6268908 C18.7092437,22.2554622 18.5243697,22.7495798 18.1579832,23.102521 C17.8117647,23.4386555 17.3277311,23.610084 16.7260504,23.610084 C16.1243697,23.610084 15.6436975,23.4386555 15.2941176,23.102521 C14.9277311,22.7495798 14.7428571,22.2554622 14.7428571,21.6268908 C14.7428571,20.9983193 14.9277311,20.5042017 15.2941176,20.1512605 C15.6436975,19.8151261 16.1277311,19.6436975 16.7260504,19.6436975 Z M10.1714286,20.9882353 C9.68067227,20.9882353 9.53277311,21.1361345 9.53277311,21.6268908 C9.53277311,22.1176471 9.68067227,22.2655462 10.1714286,22.2655462 C10.6621849,22.2655462 10.810084,22.1176471 10.810084,21.6268908 C10.810084,21.1361345 10.6621849,20.9882353 10.1714286,20.9882353 Z M16.7260504,20.9882353 C16.2352941,20.9882353 16.087395,21.1361345 16.087395,21.6268908 C16.087395,22.1176471 16.2352941,22.2655462 16.7260504,22.2655462 C17.2168067,22.2655462 17.3647059,22.1176471 17.3647059,21.6268908 C17.3647059,21.1361345 17.2168067,20.9882353 16.7260504,20.9882353 Z M2.3092437,0.0134453782 C3.94957983,0.0134453782 5.33109244,1.07226891 5.59327731,2.53445378 C5.65173815,2.86140142 5.85908618,4.05517242 6.11907855,5.55931009 L10.0164454,5.55944538 L10.0168067,4.13109244 C10.0156472,4.09901201 10.0174654,4.06750935 10.022016,4.03686042 L10.0168067,4.12773109 C10.0168067,3.55630252 10.5210084,3.11260504 11.5193277,2.81344538 C12.302521,2.57815126 13.3378151,2.44705882 14.4268908,2.44705882 C15.5159664,2.44705882 16.5512605,2.57815126 17.3344538,2.81344538 C18.2283617,3.08131678 18.7261039,3.46507343 18.8204407,3.9526496 C18.8369477,4.00851539 18.8459522,4.0687116 18.8436975,4.13109244 L18.8434454,5.56244538 L22.9243697,5.56302521 C23.2941176,5.56302521 23.5966387,5.86554622 23.5966387,6.23529412 C23.5966387,6.29243697 23.589916,6.34621849 23.5764706,6.4 C23.3915966,7.13277311 23.0420168,8.53781513 22.6689076,10.0302521 C22.2151261,11.8453782 21.7512605,13.7210084 21.6067227,14.2689076 C21.287395,15.4991597 20.8235294,16.4033613 20.1882353,17.0386555 C19.5193277,17.707563 18.6756303,18.0470588 17.6806723,18.0470588 L10.1714286,18.0470588 C9.16638655,18.0470588 8.27563025,17.707563 7.59327731,17.0689076 C6.88403361,16.4 6.42352941,15.4352941 6.22857143,14.2016807 C6.07394958,13.2168067 4.48739496,4.01008403 4.26554622,2.7697479 C4.1210084,1.96302521 3.28067227,1.35798319 2.30588235,1.35798319 L0.685714285,1.35798319 C0.315966386,1.35798319 0.0134453779,1.05546218 0.0134453779,0.685714286 C0.0134453779,0.315966387 0.315966386,0.0134453782 0.685714285,0.0134453782 L2.3092437,0.0134453782 Z M18.8436975,13.5092437 C18.8436975,14.0806723 18.3394958,14.5243697 17.3411765,14.8235294 C16.5579832,15.0621849 15.5226891,15.189916 14.4302521,15.189916 C13.3378151,15.189916 12.3058824,15.0588235 11.5193277,14.8235294 C10.5210084,14.5243697 10.0168067,14.0806723 10.0168067,13.5092437 L10.0164454,6.90344538 L6.35126166,6.90397583 C6.86495313,9.88189662 7.46249901,13.3644958 7.56302521,13.9932773 C7.71092437,14.9243697 8.0302521,15.6268908 8.5210084,16.0907563 C8.9512605,16.497479 9.5092437,16.7058824 10.1747899,16.7058824 L17.6806723,16.7058824 C18.5008403,16.7058824 19.6638655,16.4201681 20.3058824,13.9327731 C20.4470588,13.3915966 20.9109244,11.5193277 21.3647059,9.70756303 C21.6235294,8.66890756 21.8722689,7.66722689 22.0638655,6.90756303 L18.8434454,6.90744538 L18.8436975,13.5092437 Z M17.8352941,11.5226891 C17.6739496,11.589916 17.5092437,11.6504202 17.3411765,11.7008403 C16.5579832,11.9361345 15.5226891,12.0672269 14.4336134,12.0672269 C13.3445378,12.0672269 12.3092437,11.9361345 11.5226891,11.7008403 L11.3634454,11.6474454 L11.3262551,11.6357249 C11.3221111,11.6343099 11.3179769,11.6328922 11.3138525,11.6314716 L11.5226891,11.7008403 C11.4169583,11.6691211 11.3125577,11.6334109 11.2094875,11.5945468 C11.1680723,11.5787583 11.1283623,11.563318 11.0896917,11.5475801 C11.0696231,11.5396628 11.0490701,11.5312302 11.0285714,11.5226891 L11.0252101,13.4756303 C11.0689076,13.5260504 11.2806723,13.7277311 12.0168067,13.9193277 C12.6823529,14.0907563 13.5394958,14.1848739 14.4302521,14.1848739 C15.3210084,14.1848739 16.1781513,14.0907563 16.8436975,13.9193277 C17.5798319,13.7310924 17.7915966,13.5294118 17.8352941,13.4756303 L17.8352941,11.5226891 Z M17.5342491,8.50967445 L17.3411765,8.57142857 L17.3411765,8.57142857 C16.5579832,8.80672269 15.5226891,8.93781513 14.4336134,8.93781513 L14.4302521,8.93781513 C13.3378151,8.93781513 12.3058824,8.80672269 11.5193277,8.57142857 C11.3393095,8.51748372 11.1753579,8.4588391 11.027532,8.39559328 L11.0252101,10.3428571 L11.0252101,10.3428571 C11.0655462,10.3932773 11.2739496,10.594958 12.0168067,10.7865546 C12.6823529,10.9579832 13.5394958,11.0521008 14.4302521,11.0521008 C15.3210084,11.0521008 16.1781513,10.9579832 16.8436975,10.7865546 C17.5865546,10.594958 17.794958,10.389916 17.8352941,10.3428571 L17.8362048,8.39420841 C17.7421033,8.43457577 17.6414463,8.47307296 17.5342491,8.50967445 Z M17.8352941,5.26722689 C17.6739496,5.33445378 17.5092437,5.39495798 17.3411765,5.44537815 C16.5579832,5.68067227 15.5226891,5.81176471 14.4336134,5.81176471 C13.3445378,5.81176471 12.3092437,5.68067227 11.5260504,5.44537815 L11.4324454,5.41344538 L11.3262551,5.38026268 C11.3169312,5.37707912 11.3076567,5.37388121 11.2984318,5.37066897 L11.5260504,5.44537815 C11.4341279,5.41780141 11.343211,5.3872081 11.2532995,5.3541482 C11.2164796,5.34144876 11.1810319,5.32818027 11.1463768,5.3146841 L11.0319328,5.26722689 L11.0319328,5.26722689 L11.0252101,7.21680672 L11.0252101,7.21680672 C11.0655462,7.26722689 11.2739496,7.46890756 12.0168067,7.6605042 C12.6823529,7.83193277 13.5394958,7.92605042 14.4302521,7.92605042 C15.3210084,7.92605042 16.1781513,7.83193277 16.8436975,7.6605042 C17.5865546,7.46890756 17.794958,7.26386555 17.8352941,7.21680672 L17.8352941,5.26722689 Z M14.4302521,3.45546218 C13.5394958,3.45546218 12.6823529,3.54957983 12.0168067,3.7210084 C11.4016807,3.88235294 11.1529412,4.04705882 11.0621849,4.12773109 C11.1124699,4.17242893 11.2112543,4.24395617 11.393986,4.3257323 C11.5409233,4.39152966 11.742402,4.4636797 12.0168067,4.53445378 C12.6823529,4.70588235 13.5394958,4.8 14.4302521,4.8 C15.3210084,4.8 16.1781513,4.70588235 16.8436975,4.53445378 C17.4151261,4.38707175 17.6703098,4.23173388 17.7760154,4.14646864 L17.7983193,4.12773109 L17.7983193,4.12773109 C17.707563,4.04705882 17.4588235,3.88235294 16.8436975,3.7210084 C16.1781513,3.54957983 15.3210084,3.45546218 14.4302521,3.45546218 Z" id="Comprar-datos_2Regular"></path>
        </g>
    </g>
</svg>

<svg width="24" height="24" viewBox="0 0 24 24" xmlns="http://www.w3.org/2000/svg"><path d="M10.171 19.644c.599 0 1.083.171 1.432.507.367.353.552.847.552 1.476 0 .628-.185 1.123-.552 1.476-.346.336-.83.507-1.432.507-.601 0-1.082-.171-1.432-.507-.366-.353-.55-.848-.55-1.476 0-.629.184-1.123.55-1.476.35-.336.834-.507 1.432-.507zm6.555 0c.598 0 1.082.171 1.432.507.363.353.551.847.551 1.476 0 .628-.185 1.123-.551 1.476-.346.336-.83.507-1.432.507s-1.082-.171-1.432-.507c-.366-.353-.551-.848-.551-1.476 0-.629.185-1.123.551-1.476.35-.336.834-.507 1.432-.507zm-6.555 1.344c-.49 0-.638.148-.638.639 0 .49.148.639.638.639.491 0 .64-.148.64-.64 0-.49-.149-.638-.64-.638zm6.555 0c-.49 0-.639.148-.639.639 0 .49.148.639.64.639.49 0 .638-.148.638-.64 0-.49-.148-.638-.639-.638zM2.31.013c1.64 0 3.022 1.06 3.284 2.521.059.327.266 1.521.526 3.025h3.897V4.131a.515.515 0 01.006-.094l-.005.09c0-.57.504-1.014 1.502-1.314.784-.235 1.819-.366 2.908-.366s2.124.131 2.907.366c.894.268 1.392.652 1.486 1.14a.559.559 0 01.024.178v1.431l4.08.001a.674.674 0 01.652.837l-.907 3.63c-.454 1.815-.918 3.691-1.062 4.239-.32 1.23-.783 2.134-1.419 2.77-.669.669-1.512 1.008-2.507 1.008h-7.51c-1.005 0-1.895-.34-2.578-.978-.709-.669-1.17-1.634-1.364-2.867C6.074 13.217 4.487 4.01 4.266 2.77c-.145-.807-.985-1.412-1.96-1.412H.686A.674.674 0 01.013.686c0-.37.303-.673.673-.673h1.623zM18.844 13.51c0 .572-.505 1.015-1.503 1.315-.783.238-1.818.366-2.91.366-1.093 0-2.125-.131-2.912-.366-.998-.3-1.502-.743-1.502-1.315V6.903l-3.666.001c.514 2.978 1.111 6.46 1.212 7.09.148.93.467 1.633.958 2.097.43.406.988.615 1.654.615h7.506c.82 0 1.983-.286 2.625-2.773.141-.541.605-2.414 1.059-4.225.259-1.04.507-2.04.699-2.8h-3.22v6.601zm-1.009-1.986a5.087 5.087 0 01-.494.178c-.783.235-1.818.366-2.907.366-1.09 0-2.125-.13-2.911-.366l-.16-.054-.037-.011a4.917 4.917 0 01-.012-.005l.209.07a4.786 4.786 0 01-.494-.178l-.004 1.953c.044.05.256.252.992.443.665.172 1.522.266 2.413.266.891 0 1.748-.094 2.414-.266.736-.188.948-.39.991-.443v-1.953zm-.3-3.013l-.194.061c-.783.236-1.818.367-2.907.367h-.004c-1.092 0-2.124-.131-2.91-.367a4.637 4.637 0 01-.492-.175l-.003 1.947c.04.05.249.252.992.444.665.171 1.522.265 2.413.265.891 0 1.748-.094 2.414-.265.743-.192.951-.397.991-.444l.001-1.949a4.25 4.25 0 01-.302.116zm.3-3.243a5.087 5.087 0 01-.494.178c-.783.236-1.818.367-2.907.367-1.09 0-2.125-.131-2.908-.367l-.094-.032-.106-.033a4.862 4.862 0 01-.028-.01l.228.075a4.724 4.724 0 01-.38-.13l-.114-.048-.007 1.95c.04.05.249.252.992.444.665.17 1.522.265 2.413.265.891 0 1.748-.094 2.414-.265.743-.192.951-.397.991-.444v-1.95zM14.43 3.455c-.89 0-1.748.095-2.413.266-.615.161-.864.326-.955.407.05.044.15.116.332.198.147.066.348.138.623.208.665.172 1.522.266 2.413.266.891 0 1.748-.094 2.414-.266.571-.147.826-.302.932-.388l.022-.018c-.09-.08-.34-.246-.954-.407-.666-.171-1.523-.266-2.414-.266z" fill="#5CB615" fill-rule="nonzero"/></svg>
